X:811
T:Reel 811
M:4/4
K:Dmaj
L:1/8
AG|FDFD ADFD|FA,A,D CDEG|FDFA dBAG|FDEC DCB,A,|D2FD ADFD|CDEF GABc|dcdB AGEG|FDEC D2|FA|d2dA BdAF|GEFD EDB,C|d2dB AdFA|Bdce d2dc|d2dc BAGF|GEFD EDB,C|DCDB, A,B,CE|FDEC D2|
